!!!COM: Louise Reichardt
!!!CNT: Deutsch
!!!TXO: Deutsch
!!!OTL: Die Blume der Blumen
!!!LYR: Runge
!!!OPR: 
!!!OPS: No opus information available
!!!ONM: No. 16
!!!ENC: Ben Fuhrman
!!!YOR: Louise Reichardt: Songs
!!!YOR: New York, Da Capo Press, 1981
!!!ODT: 1800 - 1826
!!NB: Only vocal melody encoded.
!!NB: First instance of melodic material only encoded.
!!created: 2/18/10 1:12PM
!!proofed and posted: 2/18/10 1:12PM
**kern	**silbe
*clef G2	*
*k[b-e-a-d-]	*
*M6/8	*
*MM[Sehr sanft]	*
{8e-	{Es
=1	=1
8cc	blu2ht
8dd-	ei-
8cc	-ne
(8b-	scho2-
8a-)	|
8b-	-ne
=2	=2
4.a-	Blu-
4e-	-me
8a-	in
=3	=3
4g	ei-
8g	-nem
4a-	wei-
8a-	-ten
=4	=4
4.b-}	Land,}
4r	.
{8a-	{die
=5	=5
4dd-	ist
8dd-	so
8dd-	se-
8cc	-lig
8cc	ge-
=6	=6
(ccq	schaf-
4b-)	|
8b-}	-fen}
4r	.
{8b-	{die
=7	=7
4ee-	ist
8ee-	so
(16ddn	se-
16ee-	|
16gg	|
16ff)	|
16ee-	-lig
16dd-	ge-
=8	=8
4dd-	-schaf-
8cc}	-fen}
4r	.
{8b-	{und
=9	=9
4b-	wei-
8a-	-ni-
4b-	-gen
8g	be-
=10	=10
4.a-}	-kant,}
4r	.
{8cc	{ihr
=11	=11
4b-	Duft
8g	er-
8b-	fu2l-
8a-	-let
8f	die
=12	=12
4f	Tha-
8e-}	-le,}
4r	.
{8cc	{ihr
=13	=13
4b-	Glanz
8ee-	er-
(ggq	-leuch-
8ff)	|
8ee-	-tet
8ddn	den
=14	=14
[4.ee-	Wald,
8ee-]}	|}
8r	.
{8ee-	{und
=15	=16
4ee-	wo,
8cc	ein
8a-	Kran-
8b-	-ker
8cc	sie
=16	=16
(4ee-	sie
8ddn)	|
4dd-	-het,
8dd-	die
=17	=17
8cc	Krank-
8dd-	-heit
8cc	ent-
(8b-	-wei
8a-)	|
8b-	-chet
=18	=18
4.a-}	bald.}
4.r	.
==	==
*-	*-
